Sources/FrostedUI/Resources/Icons.xcassets/rewardDiamond24.imageset/reward-diamond-24.svg

<svg width="24" height="24" viewBox="0 0 24 24" fill="none" xmlns="http://www.w3.org/2000/svg" data-fui-icon="true">
  <path
    d="M15.5195 2.65077C16.5827 2.65077 17.5887 3.13407 18.2529 3.96425L22 8.64784C23.0807 9.99886 23.0123 11.9371 21.8389 13.2084L14.5742 21.0785C13.1884 22.5795 10.8165 22.5795 9.43066 21.0785L2.16602 13.2084C0.992478 11.9371 0.924058 9.99888 2.00488 8.64784L5.75195 3.96425C6.41611 3.13421 7.42132 2.65085 8.48438 2.65077H15.5195ZM8.48438 4.15077C7.8769 4.15085 7.30234 4.42738 6.92285 4.90175L3.17578 9.58437C2.55816 10.3564 2.59796 11.4643 3.26855 12.1908L10.5322 20.0609C11.3241 20.9187 12.6797 20.9185 13.4717 20.0609L20.7363 12.1908C21.4069 11.4643 21.4457 10.3564 20.8281 9.58437L17.082 4.90175C16.7025 4.42732 16.1271 4.15077 15.5195 4.15077H8.48438ZM11.4072 7.12343C11.5045 6.43535 12.4976 6.4355 12.5947 7.12343L12.7891 8.50136C12.9138 9.38767 13.6122 10.0835 14.499 10.2045L15.8594 10.39C16.5475 10.484 16.5524 11.4774 15.8652 11.5785L14.4785 11.7826C13.6018 11.9116 12.9139 12.6025 12.7891 13.4799L12.5947 14.8471C12.4966 15.5336 11.5055 15.5338 11.4072 14.8471L11.2109 13.4779C11.0855 12.6013 10.3986 11.9116 9.52246 11.7826L8.13574 11.5785C7.44903 11.477 7.4546 10.484 8.14258 10.39L9.50195 10.2045C10.3881 10.0835 11.0866 9.38888 11.2119 8.50331L11.4072 7.12343Z"
    fill="currentColor"
  />
</svg>

<svg xmlns="http://www.w3.org/2000/svg" width="24" height="24" fill="none" data-fui-icon="true" viewBox="0 0 24 24"><path fill="currentColor" d="M15.52 2.65a3.5 3.5 0 0 1 2.733 1.314L22 8.648a3.5 3.5 0 0 1-.161 4.56l-7.265 7.87a3.5 3.5 0 0 1-5.143 0l-7.265-7.87a3.5 3.5 0 0 1-.161-4.56l3.747-4.684a3.5 3.5 0 0 1 2.732-1.313zm-7.036 1.5a2 2 0 0 0-1.561.752L3.176 9.584a2 2 0 0 0 .093 2.607l7.263 7.87a2 2 0 0 0 2.94 0l7.264-7.87a2 2 0 0 0 .092-2.607l-3.746-4.682a2 2 0 0 0-1.562-.751zm2.923 2.973c.098-.688 1.09-.687 1.188 0l.194 1.378a2 2 0 0 0 1.71 1.704l1.36.185c.688.094.693 1.087.006 1.188l-1.386.205a2 2 0 0 0-1.69 1.697l-.194 1.367c-.098.687-1.09.687-1.188 0l-.196-1.37a2 2 0 0 0-1.689-1.694l-1.386-.204c-.687-.102-.681-1.095.007-1.189l1.359-.186a2 2 0 0 0 1.71-1.7z"/></svg>
